X:1
T:Wuhan, CMD
T:Wuhan, CMD
T:George Coleman Gow, 1897
T:Public Domain Courtesy of the Cyber Hymnal™
C:George Coleman Gow, 1897
Z:Public Domain
Z:Courtesy of the Cyber Hymnal™
%%score ( 1 2 ) ( 3 4 )
L:1/8
Q:1/4=97
M:6/8
K:Bb
V:1 treble 
V:2 treble 
V:3 bass 
V:4 bass 
V:1
 [DF][DG][DA] [DB]2 [Dc] | [EB]2 [EA] [EA]2 [EG] | (FA)[EG] (FA)[EG] | [DF]3- [DF]2 [DF] | %4
 (FG)[DA] [DB]2 [Dc] | [EB]2 [EA] [EA]2 [EG] | (Fd)[Ec] [EG]2 [EA] | [DB]3- [DB]2 [DB] | %8
 (Ac)[DB] (AG)[DA] |"^riten." [DB]2 [^CB] [DB]2 [DB] | (_dc)[_EB] (BA)[_EB] | [Fc]3- [Fc]2 [EF] | %12
 (FG)[DA] [DB]2 [Dc] | [EB]2 [EA] [EA]2 [EG] | ([EF][Ge])[Fd] (cG)[EA] | [DB]6 |] %16
V:2
 x6 | x6 | E2 E2 x2 | x6 | E2 x4 | x6 | E2 x4 | x6 | D2 D2 x2 | x6 | =E2 =E2 x2 | x6 | D2 x4 | x6 | %14
 x3 E2 x | x6 |] %16
V:3
 [B,,F,][B,,F,][B,,F,] [B,,F,]2 [B,,F,] | [C,F,]2 [C,F,] [C,F,]2 [C,F,] | %2
 [F,,F,]2 [F,,F,] [F,,F,]2 [A,,F,] | [B,,F,]3- [B,,F,]2 [B,,F,] | %4
 [B,,F,]2 [B,,F,] [B,,F,]2 [B,,F,] | [C,F,]2 [C,F,] [C,F,]2 [C,F,] | %6
 [F,,F,]2 [F,,F,] [F,,F,]2 [F,,F,] | [B,,F,]3- [B,,F,]2 [B,,F,] | (^F,A,)[D,G,] (F,=E,)[D,F,] | %9
 G,2 G, G,2 G, | (B,C)[=G,_D] (DC)[=G,B,] | (B,A,G, [F,A,]2) [F,A,] | %12
 [B,,B,]2 [B,,F,] [B,,F,]2 [B,,F,] | [C,F,]2 [C,F,] [C,F,]2 [C,F,] | %14
 [F,,F,]2 [F,,F,] [F,,F,]2 [F,,F,] | [B,,F,]6 |] %16
V:4
 x6 | x6 | x6 | x6 | x6 | x6 | x6 | x6 | D,2 D,2 x2 | G,2 G, G,2 G, | _G,2 _G,2 x2 | F,2 x4 | x6 | %13
 x6 | x6 | x6 |] %16

